symbolic/22x22/apps/com.endlessm.HatchPreviewer.svg

<svg xmlns="http://www.w3.org/2000/svg" width="22" height="22" version="1">
 <rect style="opacity:0.2" width="20" height="20" x="1" y="1.5" rx="6" ry="6"/>
 <rect style="fill:#1e3d47" width="20" height="20" x="1" y="1" rx="6" ry="6"/>
 <path style="opacity:0.1;fill:#ffffff" d="M 7,1 C 3.676,1 1,3.676 1,7 v 0.5 c 0,-3.324 2.676,-6 6,-6 h 8 c 3.324,0 6,2.676 6,6 V 7 C 21,3.676 18.324,1 15,1 Z"/>
 <path style="opacity:0.2" d="m 11,6.5 a 5,5 0 0 0 -5,5 5,5 0 0 0 5,5 5,5 0 0 0 4.25293,-2.382812 L 11.25,11.544922 15.259766,8.8896485 A 5,5 0 0 0 11,6.5 Z"/>
 <path style="fill:#ffcc2c" d="m 11,6 a 5,5 0 0 0 -5,5 5,5 0 0 0 5,5 5,5 0 0 0 4.25293,-2.382812 L 11.25,11.044922 15.259766,8.3896485 A 5,5 0 0 0 11,6 Z"/>
 <circle style="opacity:0.2" cx="16" cy="11.5" r="1"/>
 <circle style="fill:#f26522" cx="16" cy="11" r="1"/>
 <path style="opacity:0.2;fill:#ffffff" d="M 11,6 A 5,5 0 0 0 6,11 5,5 0 0 0 6.010742,11.207031 5,5 0 0 1 11,6.5 5,5 0 0 1 15.024414,8.544922 L 15.259766,8.3896485 A 5,5 0 0 0 11,6 Z m 0.632813,5.291016 -0.382813,0.253906 3.763672,2.417969 a 5,5 0 0 0 0.239258,-0.345703 z"/>
 <path style="opacity:0.2;fill:#ffffff" d="m 16,10 a 1,1 0 0 0 -1,1 1,1 0 0 0 0.03223,0.251953 A 1,1 0 0 1 16,10.5 1,1 0 0 1 16.967773,11.248047 1,1 0 0 0 17,11 1,1 0 0 0 16,10 Z"/>
</svg>

<svg xmlns="http://www.w3.org/2000/svg" width="22" height="22" version="1"><rect style="opacity:.2" width="20" height="20" x="1" y="1.5" rx="6" ry="6"/><rect style="fill:#1e3d47" width="20" height="20" x="1" y="1" rx="6" ry="6"/><path style="opacity:.1;fill:#fff" d="M7 1C3.676 1 1 3.676 1 7v.5c0-3.324 2.676-6 6-6h8c3.324 0 6 2.676 6 6V7c0-3.324-2.676-6-6-6z"/><path style="opacity:.2" d="M11 6.5a5 5 0 0 0-5 5 5 5 0 0 0 5 5 5 5 0 0 0 4.253-2.383l-4.003-2.572 4.01-2.655A5 5 0 0 0 11 6.5z"/><path style="fill:#ffcc2c" d="M11 6a5 5 0 0 0-5 5 5 5 0 0 0 5 5 5 5 0 0 0 4.253-2.383l-4.003-2.572 4.01-2.655A5 5 0 0 0 11 6z"/><circle style="opacity:.2" cx="16" cy="11.5" r="1"/><circle style="fill:#f26522" cx="16" cy="11" r="1"/><path style="opacity:.2;fill:#fff" d="M11 6a5 5 0 0 0-5 5 5 5 0 0 0 .01.207A5 5 0 0 1 11 6.5a5 5 0 0 1 4.024 2.045l.236-.155A5 5 0 0 0 11 6zm.633 5.291-.383.254 3.764 2.418a5 5 0 0 0 .239-.346zM16 10a1 1 0 0 0-1 1 1 1 0 0 0 .032.252A1 1 0 0 1 16 10.5a1 1 0 0 1 .968.748A1 1 0 0 0 17 11a1 1 0 0 0-1-1z"/></svg>
